assets/img/icons/icon_phone.svg

<svg width="24" height="24" fill="none" xmlns="http://www.w3.org/2000/svg"><path d="M20.023 15.488c-.63-.015-1.423-.052-1.924-.14a14.67 14.67 0 01-1.653-.425 1.017 1.017 0 00-1.019.253L13.21 17.38a15.376 15.376 0 01-3.798-2.792A15.376 15.376 0 016.62 10.79l2.204-2.218c.266-.267.365-.659.253-1.019-.142-.458-.329-1.11-.424-1.652-.089-.501-.125-1.294-.141-1.924A1 1 0 007.51 3H4c-.438 0-1 .328-1 1 0 4.539 1.84 8.874 4.966 12.034C11.126 19.16 15.461 21 20 21c.672 0 1-.562 1-1v-3.51a1 1 0 00-.977-1.002z" fill="#FFD600"/></svg>

<svg width="24" height="24" viewBox="0 0 24 24" fill="none" xmlns="http://www.w3.org/2000/svg">
<path d="M20.023 15.488C19.393 15.473 18.6 15.436 18.099 15.348C17.557 15.252 16.905 15.066 16.446 14.923C16.086 14.811 15.694 14.91 15.427 15.176L13.21 17.38C11.678 16.573 10.451 15.633 9.412 14.588C8.367 13.549 7.427 12.322 6.62 10.79L8.824 8.572C9.09 8.305 9.189 7.913 9.077 7.553C8.935 7.095 8.748 6.443 8.653 5.901C8.564 5.4 8.528 4.607 8.512 3.977C8.499 3.432 8.055 3 7.51 3H4C3.562 3 3 3.328 3 4C3 8.539 4.84 12.874 7.966 16.034C11.126 19.16 15.461 21 20 21C20.672 21 21 20.438 21 20V16.49C21 15.945 20.568 15.501 20.023 15.488Z" fill="#FFD600"/>
</svg>
